X:1
T:Title
%%score { ( 1 2 5 ) | ( 3 4 ) }
L:1/8
Q:1/4=100
M:6/8
K:Eb
V:1 treble nm="Grand Piano"
V:2 treble 
V:5 treble 
V:3 bass 
V:4 bass 
V:1
 z CC FA>_d | c3 e3 | A3 z3 | c6[K:bass][K:treble] | .B3 z3 | B3 A3 | B3 z3 | B6 | z ee z ee | %9
 z ee z ee | BAG FAG | F3 E3 | z ee z ee | z ee z ee | [DAd]AA z DF | .B6 | z ee z ee | z ee z ee | %18
 BAG FAG | F3 E3 | c3 e3 |[M:15/16] z [F_df]/-[Fdf]/[Fdf][=EAd=e]3/2- [EAde]3 | %22
[M:13/16] [EAc]EF[DA][_DEB]/-[DEB]-<[DEB] |[M:3/4] A6 |] %24
V:2
 E3 z3 | z AA AAA | z FF _dA[_DAB] | z [CEA][CEA][K:bass] z[K:treble] AA | z =EE Gc>G | z FF z FF | %6
 z AA DFc | z [DA][DA] .[_DG]3 | E3 F3 | A3 G3 | x6 | z [=B,D][B,D] z CC | E3 F3 | G3 B3 | z3 .G3 | %15
 z [_DG][DF] [DE]CB, | E3 F3 | A3 G3 | x6 | z [=B,D][B,D] z CC | z [Aa][Aa] z [_G_g][Gg] | %21
[M:15/16] A3 z3/2 z3 |[M:13/16] x13/2 |[M:3/4] z [CE] [CE] .[CE]3 |] %24
V:3
 z A,A, [F,A,_D]A,>D | z EE z[K:treble] G_G | z _DD z D=E, | E,D,E, z [CE][CE] | %4
 z[K:treble] CC [G,C=E]C>G, | F,,[F,C][G,C] A,[G,C][F,C] | z[K:treble] [DF][DF][K:bass] D,F,C | %7
 B,[F,,F,][=E,,=E,] .[_E,,_E,]3 | z[K:treble] cc[K:bass] z[K:treble] cc | %9
 z[K:treble] _dd[K:bass] z[K:treble] dd | z [_DE][DE] z [DE]E | z =B,,D, E,F,G, | %12
 z[K:treble] cc[K:bass] z[K:treble] cc | z[K:treble] BB[K:bass] z[K:treble] cc | %14
 [B,,,B,,][F,D][CD] B,2 [A,B,D] | G,[E,,E,][F,,F,] [G,,G,]C,B,, | %16
 z[K:treble] cc[K:bass] z[K:treble] cc | z[K:treble] _dd[K:bass] z[K:treble] dd | %18
 z [_DE][DE] z [DE]E | z =B,,D, E,F,G, | [A,,A,][E,A,C][E,A,C] [C,,C,][E,A,C][E,A,C] | %21
[M:15/16] [_D,,_D,][F,A,_D]/-[F,A,D]/[F,A,D][B,,,B,,]3/2- [B,,,B,,]3 | %22
[M:13/16] [E,,E,]E,F,[B,,F,][E,G,]E,,3/2 |[M:3/4] A,,E, C, .A,,3 |] %24
V:4
 [A,,,A,,]3 z3 | C3 [C,,C,]3[K:treble] | [_D,,_D,]3 .F,3 | z3 A,,,3 | [G,,,G,,]3[K:treble] z3 | %5
 x6 | [B,,,B,,]3[K:treble][K:bass] z3 | x6 | [A,,A,]3[K:treble][K:bass] [E,,E,]3[K:treble] | %9
 [B,,B,]3[K:treble][K:bass] [E,,E,]3[K:treble] | [G,,G,]3 [E,,E,]3 | .A,,6 | %12
 [A,,A,]3[K:treble][K:bass] [A,,A,]3[K:treble] | [B,,B,]3[K:treble][K:bass] [B,,B,]3[K:treble] | %14
 x6 | x6 | [A,,A,]3[K:treble][K:bass] [E,,E,]3[K:treble] | %17
 [B,,B,]3[K:treble][K:bass] [E,,E,]3[K:treble] | [G,,G,]3 [E,,E,]3 | .A,,6 | x6 |[M:15/16] x15/2 | %22
[M:13/16] x13/2 |[M:3/4] x6 |] %24
V:5
 x6 | x6 | x6 | z3[K:bass] A,,3[K:treble] | x6 | x6 | x6 | x6 | x6 | x6 | x6 | x6 | x6 | x6 | x6 | %15
 x6 | x6 | x6 | x6 | x6 | x6 |[M:15/16] x15/2 |[M:13/16] x13/2 |[M:3/4] x6 |] %24

